!!!!SEGMENT: pl-wtm--r-328-m--001_moniuszko-stanislaw--kupiec-wenecki-no-1.krn
!!!cenid: 18xx:2992
!!!COM: Moniuszko, Stanisław
!!!COM-rismid: pe30008351
!!!CDT: 1819/05/05-1872/06/04
!!!CNT: Polish
!!!GTL: Kupiec wenecki
!!!OTL: No. 1
!!!PDT: 1869
!!!AGN: Secular
!!!SMS-siglum: PL-Wtm
!!!SMS-shelfmark: R 328/M
!!!SMS-shelfwork: 001 G
!!!SMS-variant:
!!!SMS-altvar:
!!!NIFC-rismid: 1001090504
!!!URL-scan: http://repozytorium.nifc.pl/skany/pl-wtm-nut--r328m
!!!ONB-nifc: UWAGA: No. 1 – Moderato, skany 0003-0004
!!!OMD: Moderato
!!!key:
**kern	**dynam	**kern	**dynam	**kern	**dynam	**kern	**dynam	**kern	**dynam	**kern	**dynam	**kern	**dynam	**kern	**dynam
*group3	*	*group3	*	*group3	*	*group3	*	*group3	*	*group2	*	*group1	*	*group1	*
*part8	*part8	*part7	*part7	*part6	*part6	*part5	*part5	*part4	*part4	*part3	*part3	*part2	*part2	*part1	*part1
*staff8	*	*staff7	*	*staff6	*	*staff5	*	*staff4	*	*staff3	*	*staff2	*	*staff1	*
*Ibass	*	*Icello	*	*Iviola	*	*Ivioln	*	*Ivioln	*	*Itimpa	*	*Ifagot	*	*Iclars	*
*I"CB	*	*I"Vlci	*	*I"Vla	*	*I"V. 2.	*	*I"V. 1.	*	*I"Timp.	*	*I"Fag.	*	*I"Clar in C	*
*I'CB.	*	*I'vlc	*	*I'Vla	*	*I'V. 2.	*	*I'V. 1.	*	*I'Timp.	*	*I'Fag.	*	*I'Cl.	*
*clefF4	*	*clefF4	*	*clefC3	*	*clefG2	*	*clefG2	*	*clefF4	*	*clefF4	*	*clefG2	*
*Trd0c0	*	*	*	*	*	*	*	*	*	*	*	*	*	*	*
*k[f#]	*	*k[f#]	*	*k[f#]	*	*k[f#]	*	*k[f#]	*	*	*	*k[f#]	*	*k[f#]	*
*e:	*	*e:	*	*e:	*	*e:	*	*e:	*	*e:	*	*e:	*	*e:	*
*M4/4	*	*M4/4	*	*M4/4	*	*M4/4	*	*M4/4	*	*M4/4	*	*M4/4	*	*M4/4	*
*met(c)	*	*met(c)	*	*met(c)	*	*met(c)	*	*met(c)	*	*met(c)	*	*met(c)	*	*met(c)	*
=1	=1	=1	=1	=1	=1	=1	=1	=1	=1	=1	=1	=1	=1	=1	=1
*all\right	*	*all\right	*	*all\right	*	*all\right	*	*all\right	*	*all\right	*	*all\right	*	*all\right	*
!LO:TX:t=P:problem:all\right:global	!	!LO:TX:t=P:problem:all\right:global	!	!LO:TX:t=P:problem:all\right:global	!	!LO:TX:t=P:problem:all\right:global	!	!LO:TX:t=P:problem:all\right:global	!	!LO:TX:t=P:problem:all\right:global	!	!LO:TX:t=P:problem:all\right:global	!	!LO:TX:t=P:problem:all\right:global	!
!	!	!	!	!	!	!	!	!	!	!	!	!	!	!LO:TX:t=P:problem:oznaczenie tempa początkowego na niebiesko	!
!	!	!	!	!	!	!	!	!LO:TX:b:t=e marcato	!	!	!	!	!	!LO:TX:a:t=Nº1.	!
!	!	!	!	!	!	!LO:TX:b:t=e marcato	!	!LO:TX:t=P:problem:pp(ianissimo)=pp.	!	!LO:TX:t=P:problem:brak znaku przykluczowego	!	!	!	!	!
1r	.	4A\	pp	4A/	.	4a/	pp	4a/	pp	1r	.	1r	.	1r	.
!	!	!	!	!	!	!	!	!	!	!	!	!	!	!LO:TX:t=a&colon;):color=blue	!
.	.	8.d\L	.	8.d\L	.	8.d/L	.	8.dd\L	.	.	.	.	.	.	.
.	.	16d\Jk	.	16d\Jk	.	16d/Jk	.	16dd\Jk	.	.	.	.	.	.	.
*	*	*2\right	*	*2\right	*	*	*	*2\right	*	*	*	*	*	*	*
.	.	2d^>\	.	2d^>\	.	2d^</	.	2dd^>\	.	.	.	.	.	.	.
=2	=2	=2	=2	=2	=2	=2	=2	=2	=2	=2	=2	=2	=2	=2	=2
!	!	!LO:TX:a:t=col CB.	!	!	!	!	!	!	!	!	!	!	!	!	!
!LO:TX:b:t=pizzi	!	!LO:TX:b:t=arco	!	!	!	!	!	!	!	!	!	!	!	!	!
8GG/	.	8GG/yy	.	8.b\L	.	8G/ 8d	.	8.b/L	.	1ryy	.	1ryy	.	1ryy	.
8r	.	8ryy	.	.	.	8r	.	.	.	.	.	.	.	.	.
.	.	.	.	16a\K	.	.	.	16a/K	.	.	.	.	.	.	.
8BB/	.	8BB/yy	.	8.g\	.	8G/ 8d	.	(<8g/	.	.	.	.	.	.	.
8r	.	8ryy	.	.	.	8r	.	8b/J)	.	.	.	.	.	.	.
.	.	.	.	16b\Jk	.	.	.	.	.	.	.	.	.	.	.
8D\	.	8D\yy	.	4f#\ 4a	.	4c/ 4d	.	4f#/ 4a	.	.	.	.	.	.	.
8r	.	8ryy	.	.	.	.	.	.	.	.	.	.	.	.	.
8G\	.	8G\yy	.	8g\	.	8B/ 8d	.	8g/	.	.	.	.	.	.	.
8r	.	8ryy	.	8r	.	8r	.	8r	.	.	.	.	.	.	.
=3	=3	=3	=3	=3	=3	=3	=3	=3	=3	=3	=3	=3	=3	=3	=3
8C/	.	8.C/L	.	8.G/L 8.g/	.	8.ee\L	.	8.gg\L	.	1ryy	.	1ryy	.	1ryy	.
8r	.	.	.	.	.	.	.	.	.	.	.	.	.	.	.
.	.	16C/Jk	.	16G\Jk 16g	.	16dd\Jk	.	16ff#\Jk	.	.	.	.	.	.	.
8E\	.	8E\	.	8G/ 8g/	.	8cc\	.	8ee\	.	.	.	.	.	.	.
8r	.	8r	.	8r	.	8r	.	8r	.	.	.	.	.	.	.
8G\	.	8.G\L	.	8.G/L 8.g/	.	8.b/L	.	8.dd\L	.	.	.	.	.	.	.
8r	.	.	.	.	.	.	.	.	.	.	.	.	.	.	.
.	.	16G\K	.	16G\Jk 16g	.	16d/Jk	.	16b\Jk	.	.	.	.	.	.	.
8.B\L	.	8.B\	.	8.G/L	.	8d/	.	8.g/L	.	.	.	.	.	.	.
.	.	.	.	.	.	8r	.	.	.	.	.	.	.	.	.
16A\Jk	.	16A\Jk	.	16A/Jk	.	.	.	16a/Jk	.	.	.	.	.	.	.
=4	=4	=4	=4	=4	=4	=4	=4	=4	=4	=4	=4	=4	=4	=4	=4
8G\	.	8G\	.	8B/	.	8d/	.	8.b\L	.	1ryy	.	1ryy	.	1ryy	.
8r	.	8r	.	8r	.	8r	.	.	.	.	.	.	.	.	.
.	.	.	.	.	.	.	.	16cc\K	.	.	.	.	.	.	.
8GG/	.	8GG/	.	8B/ 8d	.	8G/ 8g	.	8.ee\	.	.	.	.	.	.	.
8r	.	8r	.	8r	.	8r	.	.	.	.	.	.	.	.	.
.	.	.	.	.	.	.	.	16dd\Jk	.	.	.	.	.	.	.
8D/	.	8D/	.	4.d\	.	8A/ 8f#	.	(>4.dd^>\	.	.	.	.	.	.	.
8r	.	8r	.	.	.	8r	.	.	.	.	.	.	.	.	.
4r	.	4ryy	.	.	.	4r	.	.	.	.	.	.	.	.	.
.	.	.	.	16c\LL	.	.	.	16cc\LL	.	.	.	.	.	.	.
.	.	.	.	16B\JJ	.	.	.	16b\JJ)	.	.	.	.	.	.	.
=5	=5	=5	=5	=5	=5	=5	=5	=5	=5	=5	=5	=5	=5	=5	=5
1r	.	4A\	.	4A/	.	4a/	.	4a/	.	1ryy	.	1ryy	.	1ryy	.
.	.	8.d\L	.	8.d\L	.	8.d/L	.	8.dd\L	.	.	.	.	.	.	.
.	.	16d\Jk	.	16d\Jk	.	16d/Jk	.	16dd\Jk	.	.	.	.	.	.	.
.	.	2d^>\	.	2d^>\	.	2d^</	.	2dd\^>	.	.	.	.	.	.	.
=6	=6	=6	=6	=6	=6	=6	=6	=6	=6	=6	=6	=6	=6	=6	=6
8AA/	.	8AA^</	.	8.e^>\L	.	8e/	.	8.cc^>\L	.	1ryy	.	1ryy	.	1ryy	.
8r	.	8r	.	.	.	8r	.	.	.	.	.	.	.	.	.
.	.	.	.	16d\Jk	.	.	.	16b\K	.	.	.	.	.	.	.
8C/	.	8C/	.	8c\L	.	8.e/L	.	8.a\	.	.	.	.	.	.	.
8r	.	8r	.	16ryy	.	.	.	.	.	.	.	.	.	.	.
.	.	.	.	16e\Jk	.	16e/Jk	.	16cc\Jk	.	.	.	.	.	.	.
8E/	.	8E\	.	4d\	.	4g#X^</	.	4b^>\	.	.	.	.	.	.	.
8r	.	8r	.	.	.	.	.	.	.	.	.	.	.	.	.
8A\	.	8A\	.	8c\	.	8a/	.	8a\L	.	.	.	.	.	.	.
8r	.	8r	.	8r	.	8r	.	8b\J	.	.	.	.	.	.	.
!!LO:LB:g=original
=7	=7	=7	=7	=7	=7	=7	=7	=7	=7	=7	=7	=7	=7	=7	=7
*	*	*	*	*	*	*	*	*	*	*	*	*^	*	*^	*
!LO:TX:b:t=col vlcelli	!	!	!	!	!	!	!	!	!	!	!	!LO:TX:a:t=Solo	!	!	!LO:TX:a:t=Solo	!	!
!LO:TX:b:t=pizzi.	!	!	!	!	!	!	!	!	!	!	!	!	!	!	!	!	!
2ryy	.	2r	.	2r	.	2r	.	2r	.	1r	.	4c/	1rC	.	4cc/	1rb	.
.	.	.	.	.	.	.	.	.	.	.	.	8.fn/L	.	.	8.ffn/L	.	.
!	!	!LO:TX:b:t=arco	!	!	!	!	!	!	!	!	!	!	!	!	!	!	!
.	.	.	.	.	.	.	.	.	.	.	.	16f/Jk	.	.	16ff/Jk	.	.
4ryy	.	4r	.	4r	.	4r	.	4r	.	.	.	2f^</	.	.	2ff^</	.	.
!	!	!	!	!LO:TUP:a:problem:klamra łukowa	!	!	!	!LO:TUP:a:problem:klamra łukowa	!	!	!	!	!	!	!	!	!
8.BB-X^</Lyy	.	8.BB-X^</L	.	12B-X^>/L	.	8.fn/L^<	.	12dd^>\L	.	.	.	.	.	.	.	.	.
.	.	.	.	12A/	.	.	.	12cc\	.	.	.	.	.	.	.	.	.
.	.	.	.	12G/J	.	.	.	12b-X\J	.	.	.	.	.	.	.	.	.
16D\Jkyy	.	16D/Jk	.	.	.	16f/Jk	.	.	.	.	.	.	.	.	.	.	.
=8	=8	=8	=8	=8	=8	=8	=8	=8	=8	=8	=8	=8	=8	=8	=8	=8	=8
*	*	*	*	*	*	*	*	*	*	*	*	*rep	*	*	*rep	*rep	*
!	!	!	!	!	!	!LO:SIC:v:s:t=4fn	!	!	!	!	!	!	!	!	!	!	!
4Fn\yy	.	4Fn\	.	4A/	.	4f#/	.	4cc\	.	1r	.	4c/	1rCyy	.	4cc/	1rbyy	.
4ryy	.	4r	.	4r	.	4ryy	.	4r	.	.	.	8.fn/L	.	.	8.ffn/L	.	.
.	.	.	.	.	.	.	.	.	.	.	.	16f/Jk	.	.	16ff/Jk	.	.
4ryy	.	4r	.	4r	.	4ryy	.	4r	.	.	.	[>2f^</	.	.	[>2ff^</	.	.
*	*	*	*	*Xtuplet	*	*	*	*Xtuplet	*	*	*	*	*	*	*	*	*
!	!	!	!	!LO:TUP:problem:klamra łukowa	!	!LO:SIC:v:s:t=8.fn	!	!LO:TUP:problem:klamra łukowa	!	!	!	!	!	!	!	!	!
8.BB-X^/Lyy	.	8.BB-X^</L	.	12B-X^>/L	.	8.f#/L	.	12dd^>\L	.	.	.	.	.	.	.	.	.
.	.	.	.	12A/	.	.	.	12cc\	.	.	.	.	.	.	.	.	.
.	.	.	.	12G/J	.	.	.	12b-X\J	.	.	.	.	.	.	.	.	.
!	!	!	!	!	!	!LO:SIC:v:s:t=16fn	!	!	!	!	!	!	!	!	!	!	!
16D/Jkyy	.	16D/Jk	.	.	.	16f#/Jk	.	.	.	.	.	.	.	.	.	.	.
*	*	*	*	*	*	*	*	*	*	*	*	*Xrep	*	*	*Xrep	*Xrep	*
*	*	*	*	*	*	*	*	*	*	*	*	*v	*v	*	*	*	*
=9	=9	=9	=9	=9	=9	=9	=9	=9	=9	=9	=9	=9	=9	=9	=9	=9
!	!	!	!	!	!	!LO:SIC:v:s:t=8.fn	!	!	!	!	!	!	!	!	!	!
8Fn\	.	8Fn\	.	8A/	.	8.f#/L	.	8.cc^>\L	.	1r	.	8f/]	.	8ff/]	1re	.
8r	.	8r	.	8r	.	.	.	.	.	.	.	8rc	.	8r	.	.
!	!	!	!	!	!	!LO:SIC:v:s:t=16fn	!	!	!	!	!	!	!	!	!	!
.	.	.	.	.	.	16f#/Jk	.	16ff#\Jk	.	.	.	.	.	.	.	.
*	*	*Xtuplet	*	*	*	*rep	*	*	*	*	*	*Xtuplet	*	*Xtuplet	*	*
!	!	!	!	!	!	!	!	!	!	!	!	!LO:TX:t=col Cb.	!	!	!	!
!LO:TUP:a:problem:klamra łukowa	!	!LO:TUP:problem:klamra łukowa	!	!LO:TUP:problem:klamra łukowa	!	!LO:SIC:v:s:t=8.fn	!	!	!	!	!	!LO:TUP:problem:klamra łukowa	!	!LO:TUP:problem:klamra łukowa	!	!
12B-X\L	.	12d^>\L	.	12B-X^>/L	.	8.f#/L	.	8.dd^>\L	.	.	.	12b-X\Lyy	.	12dd^>/L	.	.
12A\	.	12c\	.	12A/	.	.	.	.	.	.	.	12a\yy	.	12cc/	.	.
12G\J	.	12B-X\J	.	12G/J	.	.	.	.	.	.	.	12g\Jyy	.	12b-X/J	.	.
!	!	!	!	!	!	!LO:SIC:v:s:t=16fn	!	!	!	!	!	!	!	!	!	!
.	.	.	.	.	.	16f#/Jk	.	16ff#\Jk	.	.	.	.	.	.	.	.
*	*	*	*	*	*	*Xrep	*	*	*	*	*	*	*	*	*	*
*	*	*	*	*	*	*rep	*	*	*	*	*	*	*	*	*	*
!	!	!	!	!	!	!LO:SIC:v:s:t=8.fn	!	!	!	!	!	!	!	!	!	!
8Fn\	.	8B-\	.	8A/	.	8.f#/L	.	8.cc^>\L	.	.	.	8fn\yy	.	8cc/	.	.
8r	.	8r	.	8r	.	.	.	.	.	.	.	8ryy	.	8r	.	.
!	!	!	!	!	!	!LO:SIC:v:s:t=16fn	!	!	!	!	!	!	!	!	!	!
.	.	.	.	.	.	16f#/Jk	.	16ff#\Jk	.	.	.	.	.	.	.	.
*	*	*	*	*	*	*Xrep	*	*	*	*	*	*Xtuplet	*	*	*	*
*Xtuplet	*	*	*	*	*	*rep	*	*	*	*	*	*	*	*	*	*
!LO:TUP:problem:klamra łukowa	!	!LO:TUP:problem:klamra łukowa	!	!LO:TUP:problem:klamra łukowa	!	!LO:SIC:v:s:t=8.fn	!	!	!	!	!	!LO:TUP:a:problem:klamra łukową	!	!	!	!
12B-\L	.	12d\L	.	12B-^>/L	.	8.f#/L	.	8.dd^>\L	.	.	.	12b-\Lyy	.	12dd/L	.	.
12A\	.	12c\	.	12A/	.	.	.	.	.	.	.	12a\yy	.	12cc/	.	.
12G\J	.	12B-\J	.	12G/J	.	.	.	.	.	.	.	12g\Jyy	.	12b-/J	.	.
!	!	!	!	!	!	!LO:SIC:v:s:t=16fn	!	!	!	!	!	!	!	!	!	!
.	.	.	.	.	.	16f#/Jk	.	16ff#\Jk	.	.	.	.	.	.	.	.
*	*	*	*	*	*	*Xrep	*	*	*	*	*	*	*	*	*	*
*	*	*	*	*	*	*	*	*	*	*	*	*	*	*v	*v	*
=10	=10	=10	=10	=10	=10	=10	=10	=10	=10	=10	=10	=10	=10	=10	=10
*2\right	*	*	*	*	*	*	*	*	*	*	*	*	*	*	*
(>2Fn\	.	(>2Fn\	<	8.A/L	<	8fn/	.	8.cc^>\L	<	1r	.	8c\	.	8cc/	.
.	.	.	.	.	.	8r	.	.	.	.	.	8r	.	8r	.
.	.	.	.	16fn/Jk	.	.	.	16ffn\Jk	.	.	.	.	.	.	.
.	.	.	.	8.f\L	.	4r	.	8.ff\L	.	.	.	4r	.	4r	.
.	.	.	.	16f\Jk	.	.	.	16ff\Jk	.	.	.	.	.	.	.
4E\	.	4E\	.	8.f\L	.	2ryy	.	8.ff\L	.	.	.	4r	.	2r	.
.	.	.	.	16f\Jk	.	.	.	16ff\Jk	.	.	.	.	.	.	.
4E-X\)	.	4E-X\)	[	8.a\L	[	.	.	8.ff\L	[	.	.	4r	.	.	.
.	.	.	.	16a\Jk	.	.	.	16ff\Jk	.	.	.	.	.	.	.
*	*	*	*	*	*	*	*	*	*	*	*	*clefC4	*	*	*
=11	=11	=11	=11	=11	=11	=11	=11	=11	=11	=11	=11	=11	=11	=11	=11
*	*	*	*	*	*	*	*	*	*	*	*	*	*	*^	*
*	*	*	*	*	*	*	*	*	*	*	*	*2\right	*	*	*	*
!	!LO:DY:rj	!LO:TX:a:t=Col CB.	!LO:DY:rj	!LO:DY:rj	!	!	!LO:DY:rj	!	!LO:DY:rj	!	!LO:DY:rj	!	!LO:DY:rj	!	!	!LO:DY:rj
8D\	fp	8D\yy	fpy	8d\ 8a	f	8d/ 8dd	f	2ff#Xtt\	fp	4DTT/	fp	2f#X^>\	fp	[>2dd^>/	2a\	fp
8r	.	8ryy	.	8r	.	8r	.	.	.	.	.	.	.	.	.	.
!	!	!	!	!	!LO:DY:rj	!	!LO:DY:rj	!	!	!	!	!	!	!	!	!
8C/	.	8C/yy	.	8c\	p	8d/ 8a	p	.	.	8D/	.	.	.	.	.	.
8r	.	8ryy	.	8r	.	8ryy	.	.	.	8r	.	.	.	.	.	.
8BBn/	.	8C/yy	.	8Bn/	.	2ryy	.	8.aa^>\L	.	8D/	.	8.a^>\L	.	8dd/]	8d\	.
8r	.	8ryy	.	8r	.	.	.	.	.	8r	.	.	.	8r	8ryy	.
.	.	.	.	.	.	.	.	16gg\Jk	.	.	.	16g\Jk	.	.	.	.
8GG/	.	8GG/yy	.	8G/	.	.	.	8.dd\L	.	8D/	.	8d\	.	4ryy	4ryy	.
8r	.	8ryy	.	8r	.	.	.	.	.	8r	.	8r	.	.	.	.
.	.	.	.	.	.	.	.	16bn\Jk	.	.	.	.	.	.	.	.
*	*	*	*	*	*	*	*	*	*	*	*	*	*	*v	*v	*
=12	=12	=12	=12	=12	=12	=12	=12	=12	=12	=12	=12	=12	=12	=12	=12
8D\	.	8D\yy	.	8.D/L	.	8.f#X/L	.	8.a\L	.	8D/	.	1r	.	1r	.
8r	.	8ryy	.	.	.	.	.	.	.	8r	.	.	.	.	.
.	.	.	.	16D/Jk	.	16g/K	.	16b\Jk	.	.	.	.	.	.	.
*	*	*	*	*	*	*	*	*	*	*rep	*	*	*	*	*
8D\	.	8D\yy	.	8.d\L	.	8.a/	.	8.cc\L	.	8D/	.	.	.	.	.
8r	.	8ryy	.	.	.	.	.	.	.	8r	.	.	.	.	.
.	.	.	.	16d\Jk	.	16f#/Jk	.	16a\Jk	.	.	.	.	.	.	.
*	*	*	*	*	*	*	*	*	*	*Xrep	*	*	*	*	*
*	*	*	*	*	*	*	*	*	*	*rep	*	*	*	*	*
8G\	.	8G\yy	.	8d\	.	8g/	.	4b\	.	8D/	.	.	.	.	.
8r	.	8ryy	.	8r	.	8r	.	.	.	8r	.	.	.	.	.
*	*	*	*	*	*	*	*	*	*	*Xrep	*	*	*	*	*
*	*	*	*	*	*	*	*	*	*	*rep	*	*	*	*	*
8GG/	.	8GG/yy	.	8G/ 8d	.	4B/	.	8.d/L	.	8D/	.	.	.	.	.
8r	.	8ryy	.	8r	.	.	.	.	.	8r	.	.	.	.	.
.	.	.	.	.	.	.	.	16g/Jk	.	.	.	.	.	.	.
*	*	*	*	*	*	*	*	*	*	*Xrep	*	*	*	*	*
!!LO:PB:g=original
=13	=13	=13	=13	=13	=13	=13	=13	=13	=13	=13	=13	=13	=13	=13	=13
*	*	*	*	*	*	*	*	*	*	*	*	*	*	*^	*
*	*	*	*	*	*	*	*	*	*	*	*	*	*	*	*2\right	*
!	!	!	!	!	!	!	!	!	!	!	!	!LO:TX:a:t=Clar	!LO:DY:rj	!	!	!LO:DY:rj
8D\	.	8r	.	8A/	.	8c/	.	2f#Xtt/	.	8D\	.	(<2G/	p	2f#Xtt/	(>2A\	p
8r	.	(>4D\	.	8r	.	8r	.	.	.	8r	.	.	.	.	.	.
*	*	*	*	*rep	*	*rep	*	*	*	*	*	*	*	*	*	*
8D#X\	.	.	.	8A/	.	8c/	.	.	.	4r	.	.	.	.	.	.
8r	.	8D#X\	.	8r	.	8r	.	.	.	.	.	.	.	.	.	.
.	.	.	.	.	.	.	.	.	.	.	.	.	.	16qqe/LL	.	.
.	.	.	.	.	.	.	.	.	.	.	.	.	.	16qqf#/JJ	.	.
*	*	*	*	*Xrep	*	*Xrep	*	*	*	*	*	*	*	*	*	*
.	.	.	.	.	.	.	.	16qqe/LL	.	.	.	.	.	.	.	.
.	.	.	.	.	.	.	.	16qf#JJ	.	.	.	.	.	.	.	.
8E\	.	8E\)	.	8G/	.	8B/	.	8.a^</L	.	2r	.	2r)yy	.	8.a^>/L	4G\)	.
8r	.	8r	.	8r	.	8r	.	.	.	.	.	.	.	.	.	.
.	.	.	.	.	.	.	.	16g/K	.	.	.	.	.	16g/K	.	.
*	*	*	*	*rep	*	*	*	*	*	*	*	*	*	*	*	*
8BB/	.	8BB/	.	8G/	.	8G/	.	8.d/	.	.	.	.	.	8d/J	4r	.
8r	.	8r	.	8r	.	8r	.	.	.	.	.	.	.	8r	.	.
.	.	.	.	.	.	.	.	16B/Jk	.	.	.	.	.	.	.	.
*	*	*	*	*Xrep	*	*	*	*	*	*	*	*	*	*	*	*
*	*	*	*	*	*	*	*	*	*	*	*	*	*	*v	*v	*
=14	=14	=14	=14	=14	=14	=14	=14	=14	=14	=14	=14	=14	=14	=14	=14
!	!	!	!	!	!	!	!	!	!	!	!	!	!	!LO:CL:ed	!
*	*	*	*	*	*	*	*	*	*	*	*	*	*	*clefF4	*
!	!	!	!	!	!	!	!	!	!	!	!	!LO:TX:t=P:problem:w taktach 14-18 fag zapisany na partii cl	!	!LO:TX:a:t=Fagotto:note=podkreślone na czerwono	!
!	!	!	!	!	!	!	!	!LO:TX:a:t=(x)	!	!	!	!LO:TX:b:t=Clar:note=podkreślone na czerwono	!	!LO:TX:t=P:problem:w taktach 14-18 cl zapisany na partii fag	!
4..C/	.	4..C/	.	4..E/	.	[<2G/	.	8.A/L	.	1ryy	.	1r	.	4..E\	.
.	.	.	.	.	.	.	.	16B/K	.	.	.	.	.	.	.
.	.	.	.	.	.	.	.	8.c/	.	.	.	.	.	.	.
!LO:N:SIC:v:s:t:vis=8	!	!	!	!	!	!	!	!	!	!	!	!	!	!	!
16BB/	.	16BB/	.	16D/	.	.	.	16d/Jk	.	.	.	.	.	16D\	.
8AA/	.	8AA/	.	8C/	.	8G/]	.	8e/	.	.	.	.	.	8C\	.
8r	.	8r	.	8r	.	8r	.	8r	.	.	.	.	.	8r	.
8D\	.	8AA/	.	(<4F#/	.	4ryy	.	(<4d/	.	.	.	.	.	8D\	.
8r	.	8r	.	.	.	.	.	.	.	.	.	.	.	8r	.
=15	=15	=15	=15	=15	=15	=15	=15	=15	=15	=15	=15	=15	=15	=15	=15
!	!	!	!	!	!	!	!	!	!	!	!	!LO:TX:a:t=Clar.:note=podkreślone na czerwono	!	!LO:TX:a:t=Fag.	!
8GG/	.	8BB/ 8D	.	4G/)	.	2r	.	8G/)	.	1r	.	4r	.	4r	.
8r	.	8r	.	.	.	.	.	8r	.	.	.	.	.	.	.
!	!	!	!	!	!	!	!	!	!	!	!	!LO:CL:ed	!	!	!
*	*	*	*	*	*	*	*	*	*	*	*	*clefG2	*	*	*
!	!	!	!	!	!	!	!	!	!	!	!	!	!LO:DY:rj	!	!LO:DY:rj
4ryy	.	4r	.	4r	.	.	.	4r	.	.	.	8.d/L	pp	8.D\L	pp
.	.	.	.	.	.	.	.	.	.	.	.	16d/Jk	.	16D\Jk	.
8ryy	.	4r	.	4r	.	4r	.	4ryy	.	.	.	[>2g/	.	[>2G\	.
8ryy	.	.	.	.	.	.	.	.	.	.	.	.	.	.	.
*	*	*	*	*	*	*Xtuplet	*	*	*	*	*	*	*	*	*
!	!	!	!	!	!	!LO:TUP:problem:klamra łukowa	!LO:DY:rj	!LO:TUP:problem:klamra łukowa	!LO:DY:rj	!	!	!	!	!	!
8.C\L	.	8.C/L	.	8.G/L	.	12c/L	pp	12e/L	pp	.	.	.	.	.	.
.	.	.	.	.	.	12B/	.	12d/	.	.	.	.	.	.	.
.	.	.	.	.	.	12A/J	.	12c/J	.	.	.	.	.	.	.
16E\Jk	.	16E/Jk	.	16G/Jk	.	.	.	.	.	.	.	.	.	.	.
=16	=16	=16	=16	=16	=16	=16	=16	=16	=16	=16	=16	=16	=16	=16	=16
8G\	.	8D/	.	8G/	.	8B/	.	8d/	.	1r	.	8g/]	.	8G\]	.
8r	.	8r	.	8r	.	8r	.	8r	.	.	.	8r	.	8r	.
4r	.	4r	.	4r	.	4r	.	4r	.	.	.	8.B/L	.	8.BB/L	.
.	.	.	.	.	.	.	.	.	.	.	.	16B/Jk	.	16BB/Jk	.
4r	.	4r	.	4r	.	2r	.	4ryy	.	.	.	[<2d/	.	[>2D/	.
!	!	!	!	!	!	!	!	!LO:TUP:problem:klamra łukowa	!	!	!	!	!	!	!
(>4D\	.	8.AA/L	.	(<4F#/	.	.	.	12c/L	.	.	.	.	.	.	.
.	.	.	.	.	.	.	.	12B/	.	.	.	.	.	.	.
.	.	.	.	.	.	.	.	12A/J	.	.	.	.	.	.	.
.	.	16C/Jk	.	.	.	.	.	.	.	.	.	.	.	.	.
=17	=17	=17	=17	=17	=17	=17	=17	=17	=17	=17	=17	=17	=17	=17	=17
8G\)	.	8BB/	.	8G/)	.	1r	.	8G/	.	2r	.	8d/]	.	8D/]	.
8r	.	8r	.	8r	.	.	.	8r	.	.	.	8r	.	8r	.
4r	.	4r	.	8r	.	.	.	4r	.	.	.	4r	.	4r	.
.	.	.	.	8ryy	.	.	.	.	.	.	.	.	.	.	.
!	!	!	!	!	!	!	!	!	!	!	!LO:DY:rj	!	!	!	!
8GG/	.	8DD/ 8BB	.	8D/	.	.	.	8G/	.	8D\	pp	8G/	.	8BB/	.
8r	.	8r	.	8r	.	.	.	8r	.	8r	.	8r	.	8r	.
4r	.	4r	.	4r	.	.	.	4r	.	4r	.	4r	.	4r	.
=18	=18	=18	=18	=18	=18	=18	=18	=18	=18	=18	=18	=18	=18	=18	=18
1GG;>	.	1DD;> 1BB	.	1D;>	.	1r;>	.	1G;>	.	1D;>TT<	.	1G;>	.	1BB;>	.
!!LO:LB:g=original
==19	==19	==19	==19	==19	==19	==19	==19	==19	==19	==19	==19	==19	==19	==19	==19
*k[f#c#]	*	*k[f#c#]	*	*k[f#c#]	*	*k[f#c#]	*	*k[f#c#]	*	*k[f#c#]	*	*k[f#c#]	*	*k[f#c#]	*
*M4/4	*	*M4/4	*	*M4/4	*	*M4/4	*	*M4/4	*	*M4/4	*	*M4/4	*	*M4/4	*
*met(c)	*	*met(c)	*	*met(c)	*	*met(c)	*	*met(c)	*	*met(c)	*	*met(c)	*	*met(c)	*
!	!	!LO:TX:t=P:problem:klucze i znaki przykluczowe w wiolonczeli i altówce dopisane są na niebiesko	!	!	!	!	!	!LO:TX:t=P:problem:partie skrzypiec 1,2 oraz altówki i wiolonczeli połączone są klamrą	!	!	!	!	!	!	!
!	!	!	!	!	!	!	!	!LO:TX:t=P:problem:pp(ianissimo)=pp.	!	!	!	!	!	!	!
!	!	!	!	!	!	!	!	!LO:TX:a:t=Lento:color=blue	!	!	!	!	!	!	!
!	!	!	!	!	!LO:DY:rj:color=blue	!	!LO:DY:rj:color=blue	!LO:TX:a:t=Nº1.b&colon;)	!LO:DY:rj	!	!	!	!	!	!
1ryy	.	(>4B\	pp	(>4f#\	pp	(<4d/	pp	(>4b\	pp	1ryy	.	1ryy	.	1ryy	.
.	.	4A\	.	4a\	.	4e/	.	4cc#\	.	.	.	.	.	.	.
.	.	2D\)	.	2A/)	.	2f#/)	.	2dd\)	.	.	.	.	.	.	.
=20	=20	=20	=20	=20	=20	=20	=20	=20	=20	=20	=20	=20	=20	=20	=20
1ryy	.	(>4G\	.	(>4G/	.	(<4d/	.	(>4b\	.	1ryy	.	1ryy	.	1ryy	.
.	.	4E\)	.	4g\	.	4e/	.	4cc#\	.	.	.	.	.	.	.
.	.	4.F#\	.	2f#\)	.	2c#/)	.	2a/)	.	.	.	.	.	.	.
.	.	8E\	.	.	.	.	.	.	.	.	.	.	.	.	.
=21	=21	=21	=21	=21	=21	=21	=21	=21	=21	=21	=21	=21	=21	=21	=21
1ryy	.	(>4D\	.	(>4B\	.	(<4f#/	.	(>4b\	.	1ryy	.	1ryy	.	1ryy	.
.	.	4E\	.	4g\	.	4e/	.	4ccn\	.	.	.	.	.	.	.
.	.	4F#\	.	4f#\	.	4d/	.	4.b\	.	.	.	.	.	.	.
.	.	4FF#/)	.	4e\)	.	4c#/)	.	.	.	.	.	.	.	.	.
.	.	.	.	.	.	.	.	8a#X\)	.	.	.	.	.	.	.
=22	=22	=22	=22	=22	=22	=22	=22	=22	=22	=22	=22	=22	=22	=22	=22
1ryy	.	(<2GG^</	.	(>2d^>\	.	1B	.	2b^</	.	1ryy	.	1ryy	.	1ryy	.
.	.	4FF#/	.	4d#X\	.	.	.	4an/	.	.	.	.	.	.	.
.	.	4EE/)	.	4e\)	.	.	.	4g/	.	.	.	.	.	.	.
=23	=23	=23	=23	=23	=23	=23	=23	=23	=23	=23	=23	=23	=23	=23	=23
!	!	!LO:ART:color=blue	!	!LO:ART:color=blue	!	!LO:ART:color=blue	!	!LO:ART:color=blue	!	!	!	!	!	!	!
1ryy	.	1BB;>	.	1B;>	.	1d;>	.	1f#;>	.	1ryy	.	1ryy	.	1ryy	.
==	==	==	==	==	==	==	==	==	==	==	==	==	==	==	==
*-	*-	*-	*-	*-	*-	*-	*-	*-	*-	*-	*-	*-	*-	*-	*-
!!!system-decoration: g1,g2,g3
!!!AIN: 1 bass 1 cello 1 clars 1 fagot 1 timpa 1 viola 2 violn
!!!ENC: Anastazja Marusiak
!!!END: 2021-08-26
!!!EED: Jędrzej Mróz
!!!ESR: 2021-09-21
!!!RDF**kern: > = above
!!!RDF**kern: < = below
!!!RDF**kern: @ = marked note, color=blue
